X:55
T:Jigs simple chords 189
M:3/4
L:1/8
K:G
g[dG,B,D] BG GB | d[E2C,2E,2G,2]E E2 | c[AD,F,A,C] FD DE | F[G2G,2B,2D2]G G2 | g[dG,B,D] BG Bc |
d[E2C,2E,2G,2]E E2 | c[AD,F,A,C] FD DE | F[G5G,5B,5D5] | g[dG,B,D] BG GB |
d[E2C,2E,2G,2]E E2 | c[AD,F,A,C] FD DE | F[G2G,2B,2D2]G G2 | g[dG,B,D] BG Bc |
d[E2C,2E,2G,2]E E2 | c[AD,F,A,C] FD DE | F[G5G,5B,5D5] | g[dG,B,D] BG GB |
d[E2C,2E,2G,2]E E2 | c[AD,F,A,C] FD DE | F[G2G,2B,2D2]G G2 | g[dG,B,D] BG Bc |
d[E2C,2E,2G,2]E E2 | c[AD,F,A,C] FD DE | F[G5G,5B,5D5] | g[dG,B,D] BG GB |
d[E2C,2E,2G,2]E E2 | c[AD,F,A,C] FD DE | F[G2G,2B,2D2]G G2 | g[dG,B,D] BG Bc |
d[E2C,2E,2G,2]E E2 | c[AD,F,A,C] FD DE | F[G5G,5B,5D5] | g/a/[bG,B,D] gb af |
d[eC,E,G,] fg gf | e[dG,B,D] Bg dB | G[AD,F,A,C] FD D2 | g/a/[bG,B,D] gb af |
d[eC,E,G,] fg gf | e[fD,F,A,] af ge | ^c[d2D,2F,2A,2=C2]d de | =f[eC,E,G,] ce dB |
d[cC,E,G,] ac Bg | B[AC,E,G,] ce dB | G[FA,CE] AF DE | F[GG,B,D] AB EF |
G[AA,CE] Bc de | f[gG,B,D] dB cA | F[G2G,2B,2D2]G G2 | g/a/[bG,B,D] gb af |
d[eC,E,G,] fg gf | e[dG,B,D] Bg dB | G[AD,F,A,C] FD D2 | g/a/[bG,B,D] gb af |
d[eC,E,G,] fg gf | e[fD,F,A,] af ge | ^c[d2D,2F,2A,2=C2]d de | =f[eC,E,G,] ce dB |
d[cC,E,G,] ac Bg | B[AC,E,G,] ce dB | G[FA,CE] AF DE | F[GG,B,D] AB EF |
G[AA,CE] Bc de | f[gG,B,D] dB cA | F[G2G,2B,2D2]G G2 | g/a/[bG,B,D] gb af |
d[eC,E,G,] fg gf | e[dG,B,D] Bg dB | G[AD,F,A,C] FD D2 | g/a/[bG,B,D] gb af |
d[eC,E,G,] fg gf | e[fD,F,A,] af ge | ^c[d2D,2F,2A,2=C2]d de | =f[eC,E,G,] ce dB |
d[cC,E,G,] ac Bg | B[AC,E,G,] ce dB | G[FA,CE] AF DE | F[GG,B,D] AB EF |
G[AA,CE] Bc de | f[gG,B,D] dB cA | F[G2G,2B,2D2]G G2 | g/a/[bG,B,D] gb af |
d[eC,E,G,] fg gf | e[dG,B,D] Bg dB | G[AD,F,A,C] FD D2 | g/a/[bG,B,D] gb af |
d[eC,E,G,] fg gf | e[fD,F,A,] af ge | ^c[d2D,2F,2A,2=C2]d de | =f[eC,E,G,] ce dB |
d[cC,E,G,] ac Bg | B[AC,E,G,] ce dB | G[FA,CE] AF DE | F[GG,B,D] AB EF |
G[AA,CE] Bc de | f[gG,B,D] dB cA | F[G2G,2B,2D2]G G2 |


